KINDER
CUT[MUTSCHEKUEHCHEN VON HALBERSTADT]
REG[Europa, Mitteleuropa, Deutschland, Thueringen]
KEY[K0121B 16  F 2/4]
MEL[  5_.43_2_  1_1_-5_0_
    5_.43_2_  1_1_-5_
    -5_  1_2_3_5_  5_4_2_0_
    1_2_3_5_  5_4_2_0_
    5_.43_1_  4_6_5__
    4_2_3_1_  2_-7_1_0_ //] >>
FCT[Kinder -, Wiegen - Lied]
